sindi.svg

<svg width="84" height="32" viewBox="0 0 84 32" fill="none" xmlns="http://www.w3.org/2000/svg">
<g id="Group 93">
<path id="Vector" d="M17.2478 8.86603C16.6339 8.8387 13.881 8.64806 11.6841 6.38039C9.1698 3.78611 9.35844 0.512591 9.39643 0C9.3811 0.513258 9.22979 3.78944 6.45957 6.10843C4.03796 8.13613 1.27907 8.03882 0.666504 8.00282C1.3284 8.06415 4.05263 8.39343 6.21894 10.7304C8.55657 13.2514 8.53457 16.2643 8.51791 16.8688C8.57123 16.2343 8.88185 13.386 11.3348 11.1484C13.7684 8.92802 16.6046 8.86469 17.2478 8.86669V8.86603Z" fill="white"/>
<g id="Group">
<path id="Vector_2" d="M11.0139 28.4785L14.3613 24.5538C14.3613 27.4974 17.5641 30.3829 20.9116 30.3829C22.3547 30.3829 25.1822 29.8923 25.1822 27.4394C25.1822 22.3608 11.6771 24.0345 11.6771 17.6855C11.6771 11.7697 18.314 11.7983 21.0556 11.7983C24.7203 11.7983 28.0391 13.3568 29.1643 14.7126L26.3654 18.1174C26.3654 16.617 25.0669 13.1255 21.0556 13.1255C18.2567 13.1255 16.1497 13.9047 16.1497 15.8957C16.1497 20.2818 30.6647 18.9833 30.6647 26.2842C30.6647 31.3921 24.7776 31.998 21.0262 31.998C16.1784 31.998 11.0132 29.1411 11.0132 28.4772L11.0139 28.4785Z" fill="white"/>
<path id="Vector_3" d="M32.166 30.5851C32.426 30.5851 33.0319 30.4984 33.0605 29.4019V20.3406C33.0319 19.2441 32.7139 19.1574 32.166 19.1574C31.8487 19.1574 32.022 17.7436 32.022 17.7436L38.457 17.2244V29.4019C38.457 30.5564 39.0916 30.6137 39.3802 30.6137C39.6975 30.6137 39.4955 31.9702 39.4955 31.9702H32.0214C32.0214 31.9702 31.8481 30.5851 32.1653 30.5851H32.166ZM33.2045 14.2521C33.2045 12.6364 34.7049 11.7705 35.7148 11.7705C37.5905 11.7705 38.225 13.3863 38.225 14.2521C38.225 15.118 37.5905 16.7918 35.7148 16.7918C34.8489 16.7918 33.2045 16.0992 33.2045 14.2521Z" fill="white"/>
<path id="Vector_4" d="M40.9095 30.5848C41.1694 30.5848 41.7753 30.4982 41.804 29.4017V20.3403C41.7753 19.2438 41.4574 19.1572 40.9095 19.1572C40.5922 19.1572 40.7655 17.7434 40.7655 17.7434L47.2585 17.2241C47.2585 17.2241 47.2298 17.6861 47.2298 18.8112C47.6051 18.0607 48.6149 17.2528 50.4619 17.2528C52.5976 17.2528 55.7718 18.0607 55.7718 21.5521V29.401C55.7718 30.5555 56.4063 30.6128 56.6663 30.6128C56.9836 30.6128 56.8109 31.9693 56.8109 31.9693H49.2795C49.2795 31.9693 49.1062 30.5841 49.4241 30.5841C49.6841 30.5841 50.3186 30.4975 50.3186 29.401V22.1001C50.3186 19.4451 49.9147 18.6372 48.4716 18.6372C47.923 18.6372 47.2305 19.1565 47.2305 20.0804V29.401C47.2305 30.5555 47.865 30.6128 48.1536 30.6128C48.4709 30.6128 48.269 31.9693 48.269 31.9693H40.7662C40.7662 31.9693 40.5929 30.5841 40.9101 30.5841L40.9095 30.5848Z" fill="white"/>
<path id="Vector_5" d="M57.6167 24.5831C57.6167 19.4465 60.9928 17.2535 64.7442 17.2535C66.9952 17.2535 68.005 17.9747 68.467 18.61V11.771L74.9306 12.2903C74.9306 12.2903 75.0746 13.6467 74.7866 13.6467C74.2094 13.6467 73.8921 13.7334 73.8921 14.8299V29.4317C73.8921 30.5282 74.498 30.6149 74.7866 30.6149C75.1039 30.6149 74.9306 31.9713 74.9306 31.9713C74.9306 31.9713 67.4858 32 67.0525 32C61.0795 32 57.6167 29.6917 57.6167 24.5838V24.5831ZM67.0525 30.6429C67.947 30.6429 68.4663 30.4696 68.4663 29.4311V19.9371C67.9757 19.2159 67.4271 18.6386 66.302 18.6386C64.0223 18.6386 63.0992 19.8798 63.0992 24.5831C63.0992 29.7197 65.0615 30.6429 67.0525 30.6429Z" fill="white"/>
<path id="Vector_6" d="M76.3447 30.5851C76.6047 30.5851 77.2106 30.4984 77.2392 29.4019V20.3406C77.2106 19.2441 76.8926 19.1574 76.3447 19.1574C76.0274 19.1574 76.2007 17.7436 76.2007 17.7436L82.6357 17.2244V29.4019C82.6357 30.5564 83.2703 30.6137 83.5589 30.6137C83.8762 30.6137 83.6742 31.9702 83.6742 31.9702H76.2001C76.2001 31.9702 76.0268 30.5851 76.344 30.5851H76.3447ZM77.3839 14.2521C77.3839 12.6364 78.8843 11.7705 79.8941 11.7705C81.7698 11.7705 82.4044 13.3863 82.4044 14.2521C82.4044 15.118 81.7698 16.7918 79.8941 16.7918C79.0283 16.7918 77.3839 16.0992 77.3839 14.2521Z" fill="white"/>
</g>
</g>
</svg>

<svg xmlns="http://www.w3.org/2000/svg" width="84" height="32" fill="none"><g fill="#fff"><path d="M17.248 8.866c-.614-.027-3.367-.218-5.564-2.486C9.17 3.786 9.358.513 9.396 0 9.381.513 9.23 3.79 6.46 6.108 4.038 8.136 1.28 8.038.667 8.003c.661.061 3.386.39 5.552 2.727 2.338 2.521 2.316 5.534 2.299 6.139.053-.635.364-3.483 2.817-5.72 2.433-2.221 5.27-2.284 5.913-2.282zM11.014 28.479l3.347-3.925c0 2.943 3.203 5.829 6.55 5.829 1.444 0 4.271-.49 4.271-2.944 0-5.078-13.505-3.404-13.505-9.753 0-5.916 6.637-5.888 9.379-5.888 3.664 0 6.983 1.559 8.108 2.915l-2.799 3.404c0-1.5-1.298-4.991-5.31-4.991-2.798 0-4.905.779-4.905 2.77 0 4.386 14.515 3.087 14.515 10.388 0 5.108-5.887 5.714-9.639 5.714-4.848 0-10.013-2.857-10.013-3.52M32.166 30.585c.26 0 .866-.087.895-1.183V20.34c-.03-1.097-.347-1.184-.895-1.184-.317 0-.144-1.413-.144-1.413l6.435-.52v12.178c0 1.154.635 1.212.923 1.212.317 0 .115 1.356.115 1.356h-7.474s-.173-1.385.144-1.385zm1.039-16.333c0-1.616 1.5-2.482 2.51-2.482 1.875 0 2.51 1.616 2.51 2.482s-.635 2.54-2.51 2.54c-.866 0-2.51-.693-2.51-2.54M40.91 30.585c.26 0 .865-.087.894-1.183V20.34c-.029-1.096-.347-1.183-.895-1.183-.317 0-.143-1.414-.143-1.414l6.493-.519s-.03.462-.03 1.587c.376-.75 1.386-1.558 3.233-1.558 2.136 0 5.31.808 5.31 4.3V29.4c0 1.154.634 1.212.894 1.212.318 0 .145 1.356.145 1.356h-7.532s-.173-1.385.145-1.385c.26 0 .895-.087.895-1.183v-7.3c0-2.656-.404-3.464-1.847-3.464-.549 0-1.242.52-1.242 1.443v9.321c0 1.154.635 1.212.924 1.212.317 0 .115 1.356.115 1.356h-7.503s-.173-1.385.144-1.385M57.617 24.583c0-5.136 3.376-7.33 7.127-7.33 2.251 0 3.261.722 3.723 1.357v-6.839l6.464.52s.144 1.356-.144 1.356c-.578 0-.895.086-.895 1.183v14.602c0 1.096.606 1.183.895 1.183.317 0 .144 1.356.144 1.356S67.486 32 67.052 32c-5.973 0-9.435-2.308-9.435-7.416m9.435 6.06c.895 0 1.414-.173 1.414-1.212v-9.494c-.49-.721-1.039-1.298-2.164-1.298-2.28 0-3.203 1.24-3.203 5.944 0 5.137 1.962 6.06 3.953 6.06M76.345 30.585c.26 0 .866-.087.894-1.183V20.34c-.028-1.097-.346-1.184-.894-1.184-.318 0-.144-1.413-.144-1.413l6.435-.52v12.178c0 1.154.634 1.212.923 1.212.317 0 .115 1.356.115 1.356H76.2s-.173-1.385.144-1.385m1.039-16.333c0-1.616 1.5-2.482 2.51-2.482 1.876 0 2.51 1.616 2.51 2.482s-.634 2.54-2.51 2.54c-.866 0-2.51-.693-2.51-2.54"/></g></svg>
